**kern	**kern	**dynam
*part1	*part1	*part1
*staff2	*staff1	*
*I"Piano	*	*
*clefF4	*clefG2	*
*k[f#c#g#d#a#]	*k[f#c#g#d#a#]	*
=1	=1	=1
8.CC#L 8.C#	8.c#L	.
16EE#XK 16E#X	16e#XK	.
8GG#J 8G#	8g#J	.
=	=	=
8.C#L 8.c#	8.cc#L	.
16GG#K 16G#	16g#K	.
8EE#XJ 8E#X	8e#XJ	.
=	=	=
8.CC#L 8.C#	8.c#L	.
16EE#XK 16E#X	16e#XK	.
8GG#J 8G#	8g#J	.
=	=	=
4C# 4c#	4cc#	.
8F# 8c#	8en 8f# 8a# 8cc#	.
=	=	=
4F# 4c#	4e 4f# 4a# 4cc#	.
8F# 8c#	8e 8f# 8a# 8cc#	.
=	=	=
*	*^	*
16BLL 16d#	16bLL 16dd#	8f#	.
16c#JJ 16e	16cc#JJ 16ee	.	.
8d#L 8f#	8dd#L 8ff#	8ryy	.
8EJ 8B 8e	8g#J 8b 8ee	8ryy	.
*	*v	*v	*
=	=	=
4F# 4B 4d#	4f# 4b 4dd#	.
8F# 8c#	8e 8f# 8a# 8cc#	.
=	=	=
8BB 8B	8d# 8f# 8b	.
8r	8r	.
*clefG2	*	*
8d#' 8f# 8b	8r	f
=||	=||	=||
*-	*-	*-
!!!system-decoration: {(s1,s2)}
